icons/midnadark/actions/24/escape-direction-all.svg

<?xml version="1.0" encoding="UTF-8" standalone="no"?>
<!-- Created with Inkscape (http://www.inkscape.org/) -->

<svg
   xmlns:dc="http://purl.org/dc/elements/1.1/"
   xmlns:cc="http://creativecommons.org/ns#"
   xmlns:rdf="http://www.w3.org/1999/02/22-rdf-syntax-ns#"
   xmlns:svg="http://www.w3.org/2000/svg"
   xmlns="http://www.w3.org/2000/svg"
   xmlns:sodipodi="http://sodipodi.sourceforge.net/DTD/sodipodi-0.dtd"
   xmlns:inkscape="http://www.inkscape.org/namespaces/inkscape"
   width="22"
   height="22"
   id="svg3049"
   version="1.1"
   inkscape:version="0.91 r13725"
   sodipodi:docname="escape-direction-all.svg"
   inkscape:export-filename="/home/uri/.kde/share/icons/NITRUX-KDE/16x16/actions/view-right-new.png"
   inkscape:export-xdpi="30"
   inkscape:export-ydpi="30">
  <defs
     id="defs3051">
    <style
       type="text/css"
       id="current-color-scheme">
      .ColorScheme-Text {
        color:#f2f2f2;
      }
      .ColorScheme-Background {
        color:#eff0f1;
      }
      .ColorScheme-Highlight {
        color:#3daee9;
      }
      .ColorScheme-ViewText {
        color:#31363b;
      }
      .ColorScheme-ViewBackground {
        color:#fcfcfc;
      }
      .ColorScheme-ViewHover {
        color:#93cee9;
      }
      .ColorScheme-ViewFocus{
        color:#3daee9;
      }
      .ColorScheme-ButtonText {
        color:#31363b;
      }
      .ColorScheme-ButtonBackground {
        color:#eff0f1;
      }
      .ColorScheme-ButtonHover {
        color:#93cee9;
      }
      .ColorScheme-ButtonFocus{
        color:#3daee9;
      }
      </style>
  </defs>
  <sodipodi:namedview
     id="base"
     pagecolor="#ffffff"
     bordercolor="#666666"
     borderopacity="1.0"
     inkscape:pageopacity="0.0"
     inkscape:pageshadow="2"
     inkscape:zoom="25.665842"
     inkscape:cx="16.282562"
     inkscape:cy="12.383987"
     inkscape:document-units="px"
     inkscape:current-layer="layer1"
     showgrid="true"
     fit-margin-top="0"
     fit-margin-left="0"
     fit-margin-right="0"
     fit-margin-bottom="0"
     inkscape:window-width="1920"
     inkscape:window-height="1013"
     inkscape:window-x="-4"
     inkscape:window-y="0"
     inkscape:window-maximized="1"
     inkscape:showpageshadow="false"
     borderlayer="true">
    <sodipodi:guide
       position="2.0000044,20.00003"
       orientation="18,0"
       id="guide4067" />
    <sodipodi:guide
       position="2.0000044,2.0000296"
       orientation="0,18"
       id="guide4069" />
    <sodipodi:guide
       position="20.000004,2.0000296"
       orientation="-18,0"
       id="guide4071" />
    <sodipodi:guide
       position="20.000004,20.00003"
       orientation="0,-18"
       id="guide4073" />
    <sodipodi:guide
       position="3.0000044,19.00003"
       orientation="16,0"
       id="guide4077" />
    <sodipodi:guide
       position="3.0000044,3.0000296"
       orientation="0,16"
       id="guide4079" />
    <sodipodi:guide
       position="19.000004,3.0000296"
       orientation="-16,0"
       id="guide4081" />
    <sodipodi:guide
       position="19.000004,19.00003"
       orientation="0,-16"
       id="guide4083" />
    <inkscape:grid
       type="xygrid"
       id="grid4085" />
    <sodipodi:guide
       position="11.000004,18.999969"
       orientation="0,-6"
       id="guide4175" />
    <sodipodi:guide
       position="9.9999739,18.999969"
       orientation="0,-4.9999695"
       id="guide4201" />
  </sodipodi:namedview>
  <metadata
     id="metadata3054">
    <rdf:RDF>
      <cc:Work
         rdf:about="">
        <dc:format>image/svg+xml</dc:format>
        <dc:type
           rdf:resource="http://purl.org/dc/dcmitype/StillImage" />
        <dc:title></dc:title>
      </cc:Work>
    </rdf:RDF>
  </metadata>
  <g
     inkscape:label="Capa 1"
     inkscape:groupmode="layer"
     id="layer1"
     transform="translate(-421.71429,-525.79074)">
    <g
       transform="translate(421.71429,-504.57146)"
       id="layer1-5"
       inkscape:label="Capa 1">
      <path
         id="rect4154"
         transform="translate(-1,1029.3622)"
         d="M 4,4 4,20 20,20 20,4 4,4 Z M 5,5 19,5 19,19 5,19 5,5 Z"
         style="color:#000000;display:inline;overflow:visible;visibility:visible;fill:#f2f2f2;fill-opacity:1;fill-rule:evenodd;stroke:none;stroke-width:1;marker:none;enable-background:accumulate"
         inkscape:connector-curvature="0" />
      <g
         inkscape:label="Capa 1"
         id="layer1-0-9"
         transform="matrix(1.25,0,0,1,-660.61073,437.23316)">
        <g
           transform="translate(552.2855,-422.71408)"
           id="layer1-03-5"
           inkscape:label="Capa 1">
          <rect
             transform="translate(-19.39692,1014.8431)"
             y="11.000017"
             x="6"
             height="2"
             width="4"
             id="rect4152-9"
             style="color:#000000;display:inline;overflow:visible;visibility:visible;fill:#da4453;fill-opacity:1;fill-rule:evenodd;stroke:none;stroke-width:1;marker:none;enable-background:accumulate" />
        </g>
      </g>
      <g
         inkscape:label="Capa 1"
         id="layer1-0-9-0"
         transform="matrix(1.25,0,0,1,-669.61072,437.23318)">
        <g
           transform="translate(552.2855,-422.71408)"
           id="layer1-03-5-9"
           inkscape:label="Capa 1">
          <rect
             transform="translate(-19.39692,1014.8431)"
             y="11.000017"
             x="6"
             height="2"
             width="4"
             id="rect4152-9-9"
             style="color:#000000;display:inline;overflow:visible;visibility:visible;fill:#da4453;fill-opacity:1;fill-rule:evenodd;stroke:none;stroke-width:1;marker:none;enable-background:accumulate" />
        </g>
      </g>
      <g
         inkscape:label="Capa 1"
         id="layer1-0-9-00"
         transform="matrix(0.5,0,0,2.499991,-259.44429,-473.45497)">
        <g
           transform="translate(552.2855,-422.71408)"
           id="layer1-03-5-7"
           inkscape:label="Capa 1">
          <rect
             transform="translate(-19.39692,1014.8431)"
             y="11.000017"
             x="6"
             height="2"
             width="4"
             id="rect4152-9-3"
             style="color:#000000;display:inline;overflow:visible;visibility:visible;fill:#da4453;fill-opacity:1;fill-rule:evenodd;stroke:none;stroke-width:1;marker:none;enable-background:accumulate" />
        </g>
      </g>
      <g
         inkscape:label="Capa 1"
         id="layer1-0-9-00-7"
         transform="matrix(0.5,0,0,2.4999908,-259.44429,-464.45478)">
        <g
           transform="translate(552.2855,-422.71408)"
           id="layer1-03-5-7-9"
           inkscape:label="Capa 1">
          <rect
             transform="translate(-19.39692,1014.8431)"
             y="11.000017"
             x="6"
             height="2"
             width="4"
             id="rect4152-9-3-4"
             style="color:#000000;display:inline;overflow:visible;visibility:visible;fill:#da4453;fill-opacity:1;fill-rule:evenodd;stroke:none;stroke-width:1;marker:none;enable-background:accumulate" />
        </g>
      </g>
      <path
         id="path2992"
         d="m 11,1038.3622 c -1.656859,0 -3,1.3431 -3,3 0,1.6569 1.343141,3 3,3 1.656859,0 3,-1.3431 3,-3 0,-1.6569 -1.343141,-3 -3,-3 z m 0,2 c 0.552285,0 1,0.4477 1,1 0,0.5523 -0.447715,1 -1,1 -0.552285,0 -1,-0.4477 -1,-1 0,-0.5523 0.447715,-1 1,-1 z"
         style="color:#000000;display:inline;overflow:visible;visibility:visible;fill:#1d99f3;fill-opacity:1;fill-rule:evenodd;stroke:none;stroke-width:1;marker:none;enable-background:accumulate"
         inkscape:connector-curvature="0" />
    </g>
  </g>
</svg>

<svg xmlns="http://www.w3.org/2000/svg" viewBox="0 0 22 22" xmlns:xlink="http://www.w3.org/1999/xlink"><defs><path id="0" d="m538.89 603.13h4v2h-4z" fill="#da4453" fill-rule="evenodd" color="#000" stroke-width="1"/></defs><g transform="translate(0-1030.36)"><path transform="translate(-1 1029.36)" d="m4 4v16h16v-16h-16m1 1h14v14h-14v-14" fill="#f2f2f2" fill-rule="evenodd" color="#000"/><use transform="matrix(1.25 0 0 1-660.61 437.23)" xlink:href="#0"/><use transform="matrix(1.25 0 0 1-669.61 437.23)" xlink:href="#0"/><use transform="matrix(.5 0 0 2.49999-259.44-473.45)" xlink:href="#0"/><use transform="matrix(.5 0 0 2.49999-259.44-464.45)" xlink:href="#0"/><path d="m11 1038.36c-1.657 0-3 1.343-3 3 0 1.657 1.343 3 3 3 1.657 0 3-1.343 3-3 0-1.657-1.343-3-3-3m0 2c.552 0 1 .448 1 1 0 .552-.448 1-1 1-.552 0-1-.448-1-1 0-.552.448-1 1-1" fill="#1d99f3" fill-rule="evenodd" color="#000"/></g></svg>
